X: 26806
T: Miller's Rant, The
R: jig
M: 6/8
K: Amixolydian
|:a3 efg|f3 efg|a2 a2 gf|ecA cec|
a3 efg|f3 def|g2 g2 fe|dBG BdB:|
|:cde A2 e|c2 a e2 d|cde A2 g|dBG BdB|
cde A2 e|c2 a e2 f|g2 g2 fe|dBG BdB:|A6||

